Numix-Light/16/status/indicator-keyboard-Ku-1.svg

<?xml version="1.0" encoding="UTF-8" standalone="no"?>
<svg
   xmlns:dc="http://purl.org/dc/elements/1.1/"
   xmlns:cc="http://creativecommons.org/ns#"
   xmlns:rdf="http://www.w3.org/1999/02/22-rdf-syntax-ns#"
   xmlns:svg="http://www.w3.org/2000/svg"
   xmlns="http://www.w3.org/2000/svg"
   xmlns:sodipodi="http://sodipodi.sourceforge.net/DTD/sodipodi-0.dtd"
   xmlns:inkscape="http://www.inkscape.org/namespaces/inkscape"
   viewBox="0 0 16 16"
   id="svg2"
   version="1.1"
   inkscape:version="0.91 r13725"
   sodipodi:docname="indicator-keyboard-Ku-1.svg">
  <metadata
     id="metadata14">
    <rdf:RDF>
      <cc:Work
         rdf:about="">
        <dc:format>image/svg+xml</dc:format>
        <dc:type
           rdf:resource="http://purl.org/dc/dcmitype/StillImage" />
      </cc:Work>
    </rdf:RDF>
  </metadata>
  <defs
     id="defs12" />
  <sodipodi:namedview
     pagecolor="#ffffff"
     bordercolor="#666666"
     borderopacity="1"
     objecttolerance="10"
     gridtolerance="10"
     guidetolerance="10"
     inkscape:pageopacity="0"
     inkscape:pageshadow="2"
     inkscape:window-width="640"
     inkscape:window-height="480"
     id="namedview10"
     showgrid="false"
     inkscape:zoom="14.75"
     inkscape:cx="8"
     inkscape:cy="8"
     inkscape:window-x="65"
     inkscape:window-y="24"
     inkscape:window-maximized="0"
     inkscape:current-layer="svg2" />
  <path
     style="fill:#353535;fill-opacity:1"
     d="M 1.5996094 0 C 0.71320937 2.9605947e-16 0 0.71320937 0 1.5996094 L 0 14.400391 C 2.9605947e-16 15.286791 0.71320937 16 1.5996094 16 L 14.400391 16 C 15.286791 16 16 15.286791 16 14.400391 L 16 1.5996094 C 16 0.71320937 15.286791 0 14.400391 0 L 1.5996094 0 z M 2.1171875 4.859375 L 2.7285156 4.859375 L 2.7285156 7.765625 C 2.9565156 7.561625 3.208375 7.3284531 3.484375 7.0644531 C 3.766375 6.7944531 4.0425 6.5239062 4.3125 6.2539062 C 4.5885 5.9839063 4.8459375 5.7264687 5.0859375 5.4804688 C 5.3259375 5.2344688 5.5181094 5.027375 5.6621094 4.859375 L 6.4003906 4.859375 C 6.2263906 5.045375 6.0174844 5.2673906 5.7714844 5.5253906 C 5.5254844 5.7773906 5.2642813 6.0385937 4.9882812 6.3085938 C 4.7122812 6.5785938 4.4361563 6.845375 4.1601562 7.109375 C 3.8901563 7.367375 3.6456875 7.5949688 3.4296875 7.7929688 C 3.6036875 7.9009687 3.7902812 8.0352656 3.9882812 8.1972656 C 4.1922813 8.3532656 4.3975625 8.5287031 4.6015625 8.7207031 C 4.8115625 8.9067031 5.0148906 9.1044531 5.2128906 9.3144531 C 5.4168906 9.5184531 5.6052969 9.7255469 5.7792969 9.9355469 C 5.9592969 10.145547 6.1178594 10.348875 6.2558594 10.546875 C 6.3998594 10.744875 6.5174219 10.927703 6.6074219 11.095703 L 5.9238281 11.095703 C 5.7198281 10.783703 5.4884688 10.475922 5.2304688 10.169922 C 4.9784687 9.8639217 4.7116875 9.5746875 4.4296875 9.3046875 C 4.1476875 9.0346875 3.8604063 8.7884063 3.5664062 8.5664062 C 3.2784062 8.3444062 2.9985156 8.1597656 2.7285156 8.0097656 L 2.7285156 11.095703 L 2.1171875 11.095703 L 2.1171875 4.859375 z M 7.4238281 6.4433594 L 8.0078125 6.4433594 L 8.0078125 8.8632812 C 8.0078125 9.1932812 8.0320781 9.4731719 8.0800781 9.7011719 C 8.1280781 9.9291721 8.2064531 10.115766 8.3144531 10.259766 C 8.4224531 10.397766 8.5605156 10.498453 8.7285156 10.564453 C 8.9025156 10.624453 9.1114219 10.654297 9.3574219 10.654297 C 9.6334219 10.654297 9.8741249 10.639375 10.078125 10.609375 C 10.282125 10.579375 10.410844 10.553297 10.464844 10.529297 L 10.464844 6.4433594 L 11.050781 6.4433594 L 11.050781 10.933594 C 10.876781 10.981594 10.641656 11.035703 10.347656 11.095703 C 10.053656 11.155703 9.6935781 11.185547 9.2675781 11.185547 C 8.9195781 11.185547 8.6285313 11.135203 8.3945312 11.033203 C 8.1605312 10.931203 7.972125 10.787563 7.828125 10.601562 C 7.684125 10.415563 7.5796719 10.189781 7.5136719 9.9257812 C 7.4536719 9.6617812 7.4238281 9.3707344 7.4238281 9.0527344 L 7.4238281 6.4433594 z M 13.615234 8.8417969 L 13.882812 8.8417969 L 13.882812 12.896484 L 13.503906 12.896484 L 13.503906 9.421875 C 13.461006 9.468675 13.404184 9.5157063 13.333984 9.5664062 C 13.267684 9.6171063 13.191269 9.66805 13.105469 9.71875 C 13.019669 9.76555 12.929538 9.812575 12.835938 9.859375 C 12.742337 9.902275 12.648288 9.9375437 12.554688 9.9648438 L 12.443359 9.671875 C 12.677359 9.5899751 12.887013 9.4880813 13.070312 9.3632812 C 13.253612 9.2345813 13.435834 9.0601969 13.615234 8.8417969 z "
     id="path4" />
</svg>

<svg xmlns="http://www.w3.org/2000/svg" viewBox="0 0 16 16">
 <path d="m 1.6 0 c -0.886 0 -1.6 0.713 -1.6 1.6 l 0 12.801 c 0 0.886 0.713 1.6 1.6 1.6 l 12.801 0 c 0.886 0 1.6 -0.713 1.6 -1.6 l 0 -12.801 c 0 -0.886 -0.713 -1.6 -1.6 -1.6 l -12.801 0 z m 0.518 4.859 l 0.611 0 l 0 2.906 c 0.228 -0.204 0.48 -0.437 0.756 -0.701 c 0.282 -0.27 0.558 -0.541 0.828 -0.811 c 0.276 -0.27 0.533 -0.527 0.773 -0.773 c 0.24 -0.246 0.432 -0.453 0.576 -0.621 l 0.738 0 c -0.174 0.186 -0.383 0.408 -0.629 0.666 c -0.246 0.252 -0.507 0.513 -0.783 0.783 c -0.276 0.27 -0.552 0.537 -0.828 0.801 c -0.27 0.258 -0.514 0.486 -0.73 0.684 c 0.174 0.108 0.361 0.242 0.559 0.404 c 0.204 0.156 0.409 0.331 0.613 0.523 c 0.21 0.186 0.413 0.384 0.611 0.594 c 0.204 0.204 0.392 0.411 0.566 0.621 c 0.18 0.21 0.339 0.413 0.477 0.611 c 0.144 0.198 0.262 0.381 0.352 0.549 l -0.684 0 c -0.204 -0.312 -0.435 -0.62 -0.693 -0.926 c -0.252 -0.306 -0.519 -0.595 -0.801 -0.865 c -0.282 -0.27 -0.569 -0.516 -0.863 -0.738 c -0.288 -0.222 -0.568 -0.407 -0.838 -0.557 l 0 3.086 l -0.611 0 l 0 -6.236 z m 5.307 1.584 l 0.584 0 l 0 2.42 c 0 0.33 0.024 0.61 0.072 0.838 c 0.048 0.228 0.126 0.415 0.234 0.559 c 0.108 0.138 0.246 0.239 0.414 0.305 c 0.174 0.06 0.383 0.09 0.629 0.09 c 0.276 0 0.517 -0.015 0.721 -0.045 c 0.204 -0.03 0.333 -0.056 0.387 -0.08 l 0 -4.086 l 0.586 0 l 0 4.49 c -0.174 0.048 -0.409 0.102 -0.703 0.162 c -0.294 0.06 -0.654 0.09 -1.08 0.09 c -0.348 0 -0.639 -0.05 -0.873 -0.152 c -0.234 -0.102 -0.422 -0.246 -0.566 -0.432 c -0.144 -0.186 -0.248 -0.412 -0.314 -0.676 c -0.06 -0.264 -0.09 -0.555 -0.09 -0.873 l 0 -2.609 z m 6.191 2.398 l 0.268 0 l 0 4.055 l -0.379 0 l 0 -3.475 c -0.043 0.047 -0.1 0.094 -0.17 0.145 c -0.066 0.051 -0.143 0.102 -0.229 0.152 c -0.086 0.047 -0.176 0.094 -0.27 0.141 c -0.094 0.043 -0.188 0.078 -0.281 0.105 l -0.111 -0.293 c 0.234 -0.082 0.444 -0.184 0.627 -0.309 c 0.183 -0.129 0.366 -0.303 0.545 -0.521 z" style="fill:#353535;fill-opacity:1"/>
</svg>
